X:1
T:Favor, gracia y pureza
T:José de Torres y Martinez Bravo [1665-1738]
T:From printed (Madrid 1722) and manuscript editions in Guatemala Cathedral, nos 6-118 and 6-119
T:Favor, gracia y pureza
T:Cantada al Santísimo
T:Copyright © 
T:Copyright © 
T:Copyright © 
T:Copyright © 
T:Copyright © 
T:Copyright © 
T:Copyright © 
T:Copyright © 
T:Copyright © 
T:Copyright © 
T:Copyright © 
C:José de Torres y Martinez Bravo [1665-1738]
Z:From printed (Madrid 1722) and manuscript editions
Z:in Guatemala Cathedral, nos 6-118 and 6-119
Z:Copyright ©
%%score 1 { 2 | 3 }
L:1/8
M:4/4
K:F
V:1 treble nm="[Soprano]" snm="S."
V:2 treble nm="[Continuo]" snm="Cont."
V:3 bass 
V:1
"^Recitado" z2 z F AAAA | AA z F/G/ GAAB | cc z/ c/d/e/ f2 z c | B>A GF FC z c | AAAA AABc | %5
w: Fa- vor, gra- cia,y pu-|re- za, hom- bre ad- mi- ra\_en el|a- za, del dios de\_a- mor, of-|ren- da la mas ra- ra, que\_obs-|ten- ta su ca- ri- ño,\_y su fi-|
w: |||||
w: |||||
 dd z A c2 z/ c/d/A/ | BB z/ G/A/B/ c2 z c | GG G>A AA z A/A/ | B2 AG F2 z/ B/c/d/ | d2 ^c2 d4 || %10
w: ne- za, fe- liz tu pe- cho\_em-|pie- za, a re- na- cer, go-|zan- do su\_e- fi- ca- cia, su pie-|dad, su fa- vor, pu- re- za,|y gra- cia.|
w: |||||
w: |||||
[M:3/4]"^Aria" z6 | z6 | z6 | z6 | z6 | z6 | z6 | z6 | z6 | c2 d4 | c3 (B A2) | z6 | z6 | c2 d4 | %24
w: |||||||||Ay fer-|vo- res, _|||que fa-|
w: ||||||||||||||
w: ||||||||||||||
 c3 (B A2) | z6 | z6 | G2 A4 | G3 (F E2) | F2 D4 | E3 (D C2) | z6 | z6 | c2 B4 | A4 z2 | f2 _e4 | %36
w: vo- res, *|||que\_os o-|fre- cen *|los can-|do- res, *|||que\_o- cul-|tó,|que\_o- cul-|
w: ||||||||||||
w: ||||||||||||
 d3 (c B2) | B2 A4 | (B3 c) B2 | z6 | B4 z2 | z6 | A4 z2 | A2 =B4 | c4 z2 | z2 ^F4 | G2 G2 z2 | %47
w: tó\_el a- *|ra bri-|llan- * te,||que,||que,|que\_o- cul-|tó|el|a- ra,|
w: |||||||||||
w: |||||||||||
 B2 A4 | B4 A2 | A2 G4 | A3 (G F2) | z6 | z6 | z6 | z6 | z6 | z6 | z6 | z6 | z6 | z6 | A2 B4 | %62
w: que\_o- cul-|tó\_el a-|ra bri-|llan- te. *|||||||||||Glo- ria\_ex-|
w: |||||||||||||||
w: |||||||||||||||
 A3 (G F2) | G2 E4 | F3 (E D2) | z6 | z6 | A2 B4 | A3 (G F2) | G2 E4 | F3 (E D2) | z6 | d6 | %73
w: cel- sa *|pa- ra\_el|mun- do, _|||es el|go- zo _|sin se-|gun- do, _||que,|
w: |||||||||||
w: |||||||||||
 z2 z d e2 | (c3 d c2 | =B3 e d2 | c3 d c2 | =B3 e d2 | c3) (=B A2) | A2 ^G4 | A3 (^G A2) | z6 | %82
w: que nos|e- * *||||* le- *|vó\_hoy a-|man- te, _||
w: |||||||||
w: |||||||||
 z6 | A2 =B4 | c2 c2 z2 | E2 ^F4 | G2 G2 z2 | =B2 ^c4 | d4 c2 | c2 =B4 | c3 (=B A2) | z6 | %92
w: |es el|go- zo|sin se-|gun- do,|que nos|e- le-|vó\_hoy a-|man- te, _||
w: ||||||||||
w: ||||||||||
 z2 z2 A2- | A2 d4 | d3 d c2- | c2 =B4 | c2 A2 z2!D.C.! ||[K:C][M:4/4]"^Recitado" z2 z G cccc | %98
w: que|_ nos|e- le- vó\hoy|_ a-|man- te.|En va- no la voz|
w: ||||||
w: ||||||
 cc z c c>c de | AA z A A>A !courtesy!_Bc | dd z !courtesy!^A c3 =B | B2 z/ B/c/d/ e3 d | %102
w: pue- de, co- piar fa- vor que\_ex-|ce- de, en e- se pu- ro|ve- lo, la luz del|sol. la cla- ri- dad del|
w: ||||
w: ||||
 (cB B>A) A4 ||[M:4/4]"^Aria" z8 | z8 | z8 | z8 | z4 z2 z c | (BA)Bc B2 E2 | z4 z2 z e | %110
w: cie- * * * lo|||||Di-|vi- * no glo- rio- so,|pre-|
w: ||||||||
w: ||||||||
 (dc)de d2 G2 | z4 z2 z f | edef e2 z (f | eded cBAc | dcdc BAGB | cBcB Adcd | c4 z Adc | %117
w: vi- * no go- zo- zo,|fi-|ne- * za\_el a- mo- *|||||
w: |||||||
w: |||||||
 B2) cd e2 d>c | c2 z B (3cdc (3ded | e2 z B (3cdc (3ded | (3efe (3fgf g2 z c | e2 d>c c4 | %122
w: * r, fi- ne- za\_el a-|mo- * * * * * * *||* * * * * * r, fi-|ne- za\_el a- mor,|
w: |||||
w: |||||
 z4 z2 z e | g G2 z z2 z e | g2 G2 z2 z c | e2 E2 z2 z c | e2 E2 z2 z c | (dcde dcBd | cBcd cBAc | %129
w: di-|vi- no glo-|rio- so, pre-|vi- no go-|zo- zo, fi-|ne- * * * * * * *||
w: |||||||
w: |||||||
 BABc BA^GB | AcBd ced=f | e2) Ad c2 B>A | (A2 z ^G (3ABA (3BcB | c2 z ^G (3ABA (3BcB | %134
w: ||* za, fi- ne- za\_el a-|mo- * * * * * * *||
w: |||||
w: |||||
 (3cdc (3ded) e2 z d | c2 B>A A4 | z8 | z8 | z8 | z4 z2 z A | (^G^F)GA (GF)Ec | (BA)Bc (BE)Ee | %142
w: * * * * * * r, fi-|ne- za\_el a- mor.||||Que\_em-|bo- * za lu- ci- * do, y|go- * za ren- di- * do, le-|
w: ||||||||
w: ||||||||
 (dc)de d2 z e | cBcd cedc | BABc BdcB | AGAB AcBA | G2 A>A B4- | B4 z2 z B | (cB)cd (cB)Ac | %149
w: al _ mi fer- vor, le-|a- * * * * * * *|||l mi fer- vor,|_ que\_em-|bo- * za lu- ci- * do. y|
w: |||||||
w: |||||||
 (BA)Bc (BA)GB | A4 z cBA | G^FEF G2 F>E | E2 z ^F (3GAG (3ABA | B2 z ^F (3GAG (3ABA | %154
w: go- * za ren- di- * do, le-|a- * * *|* * * * l, mi fer-|vo- * * * * * * *||
w: |||||
w: |||||
 B2 z A G2 ^F>E!D.C.! | E4 ||[M:3/1]"^Grave" z4 A4 c8 G8 | z4 A6 B2 c12 | z4 B4 d8 ^c8 | %159
w: r, le- al mi fer-|vor.|Su gra- cia,|su\_a- do- rar,|y su fa-|
w: |||||
w: |||||
 d12 z4 z8 | z4 d4 f8 c8 | z4 d6 f2 _B12 | z4 G4 c8 A8 | z4 F6 A2 D12 | z4 _B8 A4 A8 G8 | A24 || %166
w: vor,|sus- pen- sa|co- pia- rá|sus- pen- sa|co- pia- rá|la ad- mi- ra-|ción.|
w: |||||||
w: |||||||
[K:F][M:3/2]"^Coplas" z6 |: z6 | z12 | z12 | z2 A2 B2 c2 B2 A2 | d4 d2 z2 z4 | z2 G2 _e3 f (d3 c) | %173
w: ||||So- lo pue- de\_a- mo-|ro- sa|co- piar su gra- *|
w: ||||El ex- ce- so sa-|gra- do|de su fi- ne- *|
w: ||||Lo que quie- re\_a las|al- mas,|mues- tra su\_a- fec- *|
 c6 z2 z4 | z12 | z2 E2 F2 G2 F2 E2 | A4 A2 z2 z4 | (D2 E2) F3 G E4 | F6 z2 z4 | z12 | %180
w: cia,||quien in- men- sas dul-|zu- ras|go- * za\_en las a-|ras,||
w: za,||no\_hay hu- ma- no sen-|ti- do|que _ le com- pren-|da,||
w: to,||en que por sus di-|ne- zas|de- * ja los cie-|los,||
 z2 A2 G3 F (E3 D) | D6 z2 z4 | z2 A2 G2 A2 E2 G2 | F2 F4 z2 z4 | G2 A2 G2 F2 (G2 F2) | E6 z2 z4 | %186
w: co- piar su gra- *|cia,|con las glo- rias de\_a-|man- te,|lo- gré hoy el al- *|ma,|
w: de su fi- ne- *|za,|so- lo\_el mis- mo se\_en-|tien- de,|las ex- ce- len- ci- *|as,|
w: mues- tra su\_a- fect- *|to,|ob- ten- tan- do\_en el|a- ra,|go- zos e- ter- * *|nos,|
 z2 A2 B2 c2 B2 A2 | d2 d4 z2 z4 | (G2 A2 G2 A2 B2 A2) | B4 A3 B G3 F | F6 :| z6 | z12 | z12 | %194
w: con las glo- rias de\_a-|man- te,|lo- * * * * *|* gré hoy el al-|ma.||||
w: so- lo\_el mis- mo se\_en-|tien- de,|las _ _ _ _ _|_ ex- ce- len- ci-|as.||||
w: ob- ten- tan- do\_en el|a- ra,|go- * * * * *|* zos e- ter- *|nos.||||
 z2 |] %195
w: |
w: |
w: |
V:2
 z2 z F AAAA | AA z F/G/ GAAB | cc z/ c/d/e/ f2 z c | B>A GF FC z c | AAAA AABc | %5
 dd z A c2 z/ c/d/A/ | BB z/ G/A/B/ c2 z c | GG G>A AA z A/A/ | B2 AG F2 z/ B/c/d/ | d2 ^c2 d4 || %10
[M:3/4] z6 | z6 | z6 | z6 | z6 | z6 | z6 | z6 | z6 | z6 | z6 | z6 | z6 | z6 | z6 | z6 | z6 | z6 | %28
 z6 | z6 | z6 | z6 | z6 | z6 | z6 | z6 | z6 | z6 | z6 | z6 | z6 | z6 | z6 | z6 | z6 | z6 | z6 | %47
 z6 | z6 | z6 | z6 | z6 | z6 | z6 | z6 | z6 | z6 | z6 | z6 | z6 | z6 | z6 | z6 | z6 | z6 | z6 | %66
 z6 | z6 | z6 | z6 | z6 | z6 | z6 | z6 | z6 | z6 | z6 | z6 | z6 | z6 | z6 | z6 | z6 | z6 | z6 | %85
 z6 | z6 | z6 | z6 | z6 | z6 | z6 | z6 | z6 | z6 | z6 | z6 ||[K:C][M:4/4] z2 z G cccc | %98
 cc z c c>c de | AA z A A>A !courtesy!_Bc | dd z !courtesy!^A c3 =B | B2 z/ B/c/d/ e3 d | %102
 cB B>A A4 ||[M:4/4] z8 | z8 | z8 | z8 | z8 | z8 | z8 | z8 | z8 | z8 | z8 | z8 | z8 | z8 | z8 | %118
 z8 | z8 | z8 | z8 | z8 | z8 | z8 | z8 | z8 | z8 | z8 | z8 | z8 | z8 | z8 | z8 | z8 | z8 | z8 | %137
 z8 | z8 | z8 | z8 | z8 | z8 | z8 | z8 | z8 | z8 | z8 | z8 | z8 | z8 | z8 | z8 | z8 | z8 | z4 || %156
[M:3/1] z24 | z24 | z24 | z24 | z24 | z24 | z24 | z24 | z32 | z24 ||[K:F][M:3/2] z6 |: z6 | z12 | %169
 z12 | z12 | z12 | z12 | z12 | z12 | z12 | z12 | z12 | z12 | z12 | z12 | z12 | z12 | z12 | z12 | %185
 z12 | z12 | z12 | z12 | z12 | z6 :| z6 | z12 | z12 | z2 |] %195
V:3
 F,,8 | F,,8 | A,,8 | B,,4 C,2 F,,2 | F,,8 | ^F,,8 | G,,4 E,4 | E,4 ^C,4- | C,4 D,2 G,,2 | %9
 A,,4 D,,4 ||[M:3/4] F,G, A,B, C2 | F,2 B,4 | F,G, A,B, C2 | F,2 B,4 | C,D, E,F, G,2 | C,2 F,4 | %16
 B,,C, D,E, F,2 | B,,2 C,4 | F,G, A,B, C2 | F,2 B,4 | E,4 F,2 | B,,2 C,4 | F,G, A,B, C2 | F,2 B,4 | %24
 E,4 F,2 | B,,2 C,4 | F,G, A,B, C2 | E,2 F,4 | =B,,4 C,2 | F,,2 G,,4 | C,3 !courtesy!=B,, C,2 | %31
 F,,2 G,,4 | C,D, E,F, G,2 | C,2 E,4 | F,G, A,B, C2 | F,2 A,4 | B,4 _E,2 | F,2 F,,4 | %38
 B,,3 A,, B,,2 | _E,2 F,4 | B,,C, D,E, F,2 | B,,2 C,4 | F,G, A,B, C2 | F,2 G,4 | C,D, E,F, G,2 | %45
 C,2"^3x" D,4 | _E,F, G,A, B,2 | _E,2 F,4 | B,,C, D,E, F,2 | B,,2 C,4 | F,,3 G,, A,,2 | B,,2 C,4 | %52
 F,G, A,B, C2 | F,2 B,4 | F,G, A,B, C2 | F,2 B,4 | C,D, E,F, G,2 | C,2 F,4 | B,,C, D,E, F,2 | %59
 B,,2 C,4 | F, !fermata!G,A,B, C2 | F,2 G,4 | ^C,4 D,2 | G,,2 A,,4 | D,3 C, D,2 | G,,2 A,,4 | %66
 D,E, F,G, A,2 | D,2 G,4 | ^C,4 D,2 | G,,2 A,,4 | D,3 ^C, D,2 | G,,2 A,,4 | D,E, F,G, A,2 | %73
 D,2 ^G,4 | A,6 | z2 ^G,4 | A,6 | E,2 ^G,4 | A,6 | D,2 E,4 | A,,3 =B,, C,2 | D,2 E,4 | %82
 F,G, A,B, C2 | F,2 G,4 | C,D, E,F, G,2 | C,2 D,4 | G,A, B,C D2 | G,2"^3x" A,4 | D,E, F,G, A,2 | %89
 D,2 E,4 | A,3 G, F,2 | D,2"^3x" E,4 | F,4 D,2- | D,2 =B,,4 | =G,,4 A,,2- | A,,2"^3x" E,4 | A,,6 || %97
[K:C][M:4/4] C,8 | C,8 | F,8 | ^G,8 | G,4 ^G,4 | A,D,"^43x" E,2 A,,4 || %103
[M:4/4] A,A,,A,,A, ^G,^F,G,A, | ^G,E,E,C B,A,B,C | B,G,G,D ^CB,CD | ^CA,A,D ^G,E,A,D, | %107
 E,D,E,E,, A,A,,A,,A, | ^G,^F,G,A, G,E,E,G, | A,D,E,E,, A,A,,A,,C | B,A,B,C B,G,G,B, | %111
 CF,G,G,, CC,C,D | ^CB,CD CA,A,D | ^G,2 z2 A,2 z2 | ^F,2 z2 G,2 z2 |"^6" E,2 z2 F,2 z2 | %116
 E,C,C,E, F,2 z F, | G,F,E,F, G,2 G,,2 | C,2"^6" D,2 E,2 B,,2 |"^6" C,2 E,2 E,2"^6" B,,2 | %120
 C,2"^3x" D,2"^6" E,2 F,2 | G,2 G,,2 C,D,E,C, | F,D,G,G,, C"^6x"C,C,"^6"C | B,A,B,"^6x"C B,G,G,C | %124
 B,A,B,C B,G,G,C | ^G,^F,G,A, G,E,E,A, | ^G,^F,G,A, G,E,E,A, | ^F,E,F,G, F,2 G,2 | E,4 E,2 F,2 | %129
 D,4 D,2 E,2 | C,2 ^G,,2 A,,2 B,,2 | C,E,F,D, E,D,E,E,, | A,,2 B,,2 C,2 ^G,,2 | %133
 A,,2 B,,2 C,2 ^G,,2 | A,,2 B,,2 C,2 D,2 | E,2 E,,2 A,,4 | A,A,,A,,A, ^G,!courtesy!^F,G,A, | %137
 ^G,E,E,C B,A,B,C | B,G,G,C ^G,E,A,D, | E,2 E,,2 !fermata!A,,4 | E,2 z2 E,2 z A, | %141
 ^G,^F,G,A, G,2 z C | B,A,B,C B,2 ^G,2 | A,^G,A,B, A,2 ^F,2 | G,2 z2 G,2 E,2 | ^F,2 z2 F,2 ^D,2 | %146
 E,2 C,2 B,,2 z E, | ^D,^C,D,E, D,B,,B,,E, | A,,4 A,,2 C,2 | G,,4 G,,2 G,2 | A,A,,A,,A, ^D,2 B,,2 | %151
 E,2 E,,2 B,,4 | E,2 ^D,2 E,2 ^F,2 | G,2 ^D,2 E,2 ^F,2 | G,2 A,2 B,2 B,,2 | E,4 || %156
[M:3/1] F,12"^6" E,12 | F,12 C,4 E,6 F,2 |"^3x" G,8 F,4 G,4 A,8 | D,6 E,2 F,4 G,4 A,8 | %160
 D,12"^6" A,,12 | _B,,12 G,,4 G,6 _B,2 | E,12 F,12 | D,12 _B,,4 B,,6 D,2 | %164
"^6" G,,12 C,4"^76x" F,,8 _B,,8 | A,,24 ||[K:F][M:3/2] F,2 F,,2 G,,2 |: A,,2 G,,2 F,,2 | %168
 C,2 C,2 D,2 E,2 D,2 C,2 | F,2 C,2 D,2 B,,2 C,4 | F,,2 F,2 G,2 A,2 G,2 F,2 | %171
 B,2 B,,2 C,2 D,2 C,2 B,,2 | _E,4 C,4 G,4 | C,2 C,2 D,2 !courtesy!_E,2 D,2 C,2 | %174
 F,2 F,2 G,2 A,2 G,2 F,2 | C2 C,2 D,2 E,2 D,2 C,2 | F,2 F,,2 G,,2 A,,2 G,,2 F,,2 | %177
 B,,4 A,,3 B,, C,4 | F,,2 F,2 G,2 A,2 G,2 F,2 | B,2 B,,2 C,2 D,2 C,2 B,,2 | F,4 G,4 A,4 | %181
 D,2 D,2 E,2 F,2 E,2 D,2 | A,4 z2 ^C,4 z2 | D,2 D,2 E,2 F,2 E,2 D,2 | G,4 z2 =B,,4 z2 | %185
 C,2 C,2 D,2 E,2 D,2 C,2 | F,2 F,2 G,2 A,2 G,2 F,2 | B,2 B,2 C2 D2 C2 B,2 | C4 z2 F,4 z2 | %189
 E,2 C,2 F,2 B,,2 C,4 | F,2 F,,2 G,,2 :| A,,2 G,,2 F,,2 | C,2 C,2 D,2 E,2 D,2 C,2 | %193
 F,2 C,2 D,2 B,,2 C,4 | !fermata!F,,2 |] %195

